X:143
T:A Robot Plane Flies Over Arkansas
C:Break by Barry Mitterhoff
N:TablEdited by 
L:1/8
Q:1/4=190
M:4/4
K:C
z8 | "D"ga g^f dc Ac | dc d^f dc Ad | d{g}a c'a ^g=g fd | "C"cA cc "G"dc BG | 
"D"g2 ga g^f =f^f | dc d^f dc AG | D^F Ad Ad ^fa | 
K:D
(3"A"=c'^c'a =f^f "D"d4 | gd ^ga fd e=c | dg fd =cA dc | Aa ^ge =gf =fe | dA =cA "C"G=F z2 | 
"D"A=c de ga gf | z=c df dc AG | =FG AG [F2=C2] [G2D2] | AG =F^F D2 D2 | D2 D2 D=C DE | 
=FG AB =cG E2 | E2 E2 (3E=FG AF | ^AD AD =c2 {c}dD | dD dD =FG A^A | =cA GA =CE A^A | 
GD =CA, =FE G^F | D2 D2 D2 D2 | D2 (3DGA =cd =f2 | [a2e2] [g2d2] [=f2=c2] [g2d2] | 
(3^G=G=F GF D2 D2 | Dd Dd Dd Dd | Dd Dd g2 =f2 | aa =f2 gf d=c | (3ed=c (3AG=F D4 | 


